img/scheme/4.svg

<svg width="27" height="28" viewBox="0 0 27 28" fill="none" xmlns="http://www.w3.org/2000/svg">
<path d="M24.75 9.74226H22.5M22.5 9.74226H21.375C19.125 7.49427 15.75 5.24203 13.5 7.49226M22.5 9.74226V18.7423M13.5 7.49226L10.1245 10.8691C10.0352 10.9584 9.99059 11.0031 9.95466 11.0426C9.17436 11.9011 9.17469 13.2121 9.95543 14.0702C9.99136 14.1097 10.0361 14.1544 10.1254 14.2436C10.2146 14.3328 10.2593 14.3774 10.2988 14.4133C11.1571 15.1933 12.4677 15.1931 13.3257 14.4129C13.3652 14.377 13.4099 14.3323 13.4991 14.2431L14.6246 13.1176M13.5 7.49226C11.25 5.24203 7.875 7.49435 5.625 9.74234H4.5M2.25 9.74234H4.5M4.5 9.74234V18.7423M22.5 18.7423V22.1173H24.75M22.5 18.7423H19.318M16.875 15.3673L18.5625 17.0548C18.6521 17.1443 18.6969 17.1892 18.733 17.2288C19.513 18.087 19.513 19.3975 18.733 20.2557C18.6969 20.2953 18.6521 20.3402 18.5625 20.4298C18.4729 20.5193 18.4281 20.5642 18.3884 20.6002C17.5302 21.3803 16.2198 21.3803 15.3616 20.6002C15.3219 20.5642 15.2771 20.5193 15.1875 20.4298L14.625 19.8673C14.0116 20.4807 13.7049 20.7874 13.374 20.9513C12.7445 21.2633 12.0055 21.2633 11.376 20.9513C11.0451 20.7874 10.7384 20.4807 10.125 19.8673C9.3497 20.901 7.75758 20.7574 7.17971 19.6017L6.75 18.7423H4.5M4.5 18.7423V22.1173H2.25" stroke="#C73509" stroke-width="2" stroke-linecap="round" stroke-linejoin="round"/>
</svg>

<svg width="27" height="28" fill="none" xmlns="http://www.w3.org/2000/svg"><path d="M24.75 9.742H22.5m0 0h-1.125c-2.25-2.248-5.625-4.5-7.875-2.25m9 2.25v9m-9-11.25-3.376 3.377a5.65 5.65 0 0 0-.17.174 2.25 2.25 0 0 0 .001 3.027c.036.04.081.084.17.174.09.089.134.133.174.17a2.25 2.25 0 0 0 3.027-.001c.04-.036.084-.08.173-.17l1.126-1.125M13.5 7.492c-2.25-2.25-5.625.002-7.875 2.25H4.5m-2.25 0H4.5m0 0v9m18 0v3.375h2.25m-2.25-3.375h-3.182m-2.443-3.375 1.688 1.688c.09.09.134.134.17.174a2.25 2.25 0 0 1 0 3.027c-.036.04-.08.084-.17.174-.09.09-.135.134-.175.17a2.25 2.25 0 0 1-3.026 0 4.836 4.836 0 0 1-.175-.17l-.562-.563c-.613.614-.92.92-1.251 1.084a2.25 2.25 0 0 1-1.998 0c-.33-.164-.638-.47-1.251-1.084a1.738 1.738 0 0 1-2.945-.265l-.43-.86H4.5m0 0v3.375H2.25" stroke="#C73509" stroke-width="2" stroke-linecap="round" stroke-linejoin="round"/></svg>
